X:1
T:Title
%%score 1 2
L:1/8
Q:1/4=130
M:6/4
K:Bb
V:1 treble nm="Grand Piano, Soprano"
V:2 bass nm="Choir Pad, They Shall Be Comforted"
V:1
 [DF]2 [B,D]2 [CE]2 [EG]3 [DF] [DF]2 | [DB]2 [FA]2 [EG]2 [DF]6 | %2
w: By~William~James~Kirkpatrick * * * * *||
 [EG]2 [EA]2 [EB]2 [=EB]3 [EA] [EB]2 | [Gd]2 [Gc]2 [Gc]2 [Fc]6 | %4
w: ||
 [Fd]2 [=E_d]2 [F=d]2 [DB]4 [DF][DF] | [EG]2 [GB]2 [Ge]2 [Fd]6 | %6
w: ||
 [^Fd]2 [Fc]2 [DB]2 [Ec]2 [EB]2 [EG]2 | [DF]2 [CF]2 [CE]2 [B,D]6 | %8
w: ||
 F2 [FB]2 [F_Ad]2 [Gd]2 [Gc]2 [EG]2 | [EA]2 [DB]2 [Ec]2 [DB]6 | [DF]2 [DF]2 [DF]2 [_DG]2 .[=DF]4 | %11
w: |||
 [FB]2 [=EB]2 [_EB]2 .[DB]6 | [Fc]2 [Fc]2 [Ac]2 [Gd]2 .[Ac]4 | [=Ec]2 [EG]2 [EB]2 .[FA]6 | %14
w: |||
 F2 [=EG]2 [_EA]2 [DB]3 F F2 | [DB]2 [GB]2 [Gc]2 [^Fd]6 | [Ge]2 [Gd]2 [Gc]2 [FB]3 [EA] [DB]2 | %17
w: |||
 [=Ec]2 [EG]2 [_EA]2 [DB]6- | [DB]6 z6 |] %19
w: ||
V:2
 [B,,B,]2 [B,,F,]2 [B,,F,]2 [B,,B,]3 [B,,B,] [B,,B,]2 | [B,,F,]2 [B,,F,]2 [B,,B,]2 [B,,B,]6 | %2
 [E,B,]2 [E,A,]2 [E,G,]2 [C,G,]3 [C,G,] [C,G,]2 | [=E,B,]2 [E,B,]2 [E,B,]2 [F,A,]6 | %4
 [B,,B,]2 [B,,B,]2 [B,,B,]2 [B,,F,]4 [B,,B,][B,,B,] | [E,B,]2 [E,B,]2 [E,B,]2 [B,,B,]6 | %6
 [D,A,]2 [D,A,]2 [G,B,]2 [E,G,]2 [E,G,]2 [E,B,]2 | [F,B,]2 [F,A,]2 [^F,A,]2 [G,B,]6 | %8
 [D,B,]2 [D,B,]2 [D,B,]2 [E,B,]2 [E,B,]2 [E,C]2 | [F,C]2 [F,B,]2 [F,A,]2 [B,,F,B,]6 | %10
 [B,,B,]2 [B,,F,]2 [B,,B,]2 [B,,=E,]2 .[B,,F,]4 | [B,,_A,]2 [B,,G,]2 [B,,^F,]2 .[B,,=F,]6 | %12
 [F,A,]2 [F,A,]2 [F,C]2 [F,=B,]2 .[F,C]4 | [C,C]2 [C,C]2 [C,C]2 .[F,C]6 | %14
 [F,A,]2 [F,B,]2 [F,C]2 [G,B,]3 [D,B,] [D,B,]2 | [G,B,]2 [G,B,]2 [E,G,]2 [D,A,]6 | %16
 [C,C]2 [D,=B,]2 [E,C]2 [F,D]3 [^F,C] [G,B,]2 | [C,G,]2 [C,C]2 [F,C]2 [B,,B,]6- | [B,,B,]6 z6 |] %19

